X: 557
T: Değilsem de
C: Numan Ağa
O: Turkey
F: http://compmusic.upf.edu/node/140
N: saba--sarki--agiraksak--degilsem_de--numan_aga
N: makam= saba
N: form= sarki
N: usul= agiraksak = 9/4
M: 9/4
L: 1/16
K: C _2/4B _3/4d  
Q: 1/4=60
%%MIDI tuningsystem comma53
G4 A8 e2_7/8d2 d3c _1/4B2c2 B4 c2d2 c2B2  | \
w:   | 
A6c2 _1/4B3A G2e2 _7/8d3c B2c2 B4 c6z2  | 
w:   | 
c2e2 _7/8d2f2 e2g2 f2_7/8a2 g2f2 e2d2 c4 d3c _1/4B2c2  | \
w:   | 
_1/4B4 c4 c2_7/8d2 c2B2 A2AG A2B2 c8 z4  | 
w:   | 
c4 _7/8d8 d2c2 d2e2 f2e2 d2c3_1/4BA4z4B4c2 d2c2 d2c2 B2dc ded2 c2B3AG4z4G2 B2A2 c2B2 d2c2 e2d2 c3B A4 B4 c2d2  | 
w:   | 
c2_1/4B2 A8 z4 c2_7/8d2 c3B A2B2 c8  | \
w:   | 
z4 G4 A8 e2_7/8d2 d3c _1/4B2c2 B4 c2d2  | 
w:   | 
c2_1/4B2 A6c2 B3A G2e2 _7/8d3c B2c2 B4 c6z2 c2e2 d2f2 e2g2 f2_7/8a2 g2f2 e2d2 c4 d3c  | 
w:   | 
_1/4B2c2 B4 c4 c2_7/8d2 c2B2 A2AG A2B2 c8  | \
w:   | 
z4 c4 _7/8d8 d2c2 d2e2 f2e2 d2c3_1/4BA4z4B4c2 d2c2 d2c2 B2dc ded2 c2B3AG4z4G2 B2A2 c2B2 d2c2 e2d2 c3B A4 B4  | 
w:   | 
c2_7/8d2 c2_1/4B2 A12 e2f2 e3=d c2d2 e8 z4 d4 e8 d2e2 f2g2 f2e2 d2c2  | 
w:   | 
=d4 z4 c4 d2e2 d2e2 d2c2 g2f2 e2d2 c3_1/4B  | \
w:   | 
A4 z4 G2_1/4B2 A2c2 B2_7/8d2 c2e2 d2c3BA4e2  | 
w:   | 
_7/8d2d3c_1/4B2 c2B4c4c2 d2c2 B2A3GA2 B2c8z4c4d8d2 c2d2 e2f2 e2d2  | 
w:   | 
c3_1/4B A4 z4 B4 c2_7/8d2 c2d2 c2B2 dcde d2c2  | \
w:   | 
_1/4B3A G4 z4 G2B2 A2c2 B2_7/8d2 c2e2 c3B A4  | 
w:   | 
_1/4B4 c2_7/8d2 c2B2 A12 c2d2 c3B A2B2  | \
w:   | 
c8 z4 c4 _7/8d8 d2c2 d2e2 f2e2  | 
w:   | 
_7/8d2c3_1/4BA4z4B4c2 d2c2 d2c2 B2dc ded2  | \
w:   | 
c2_1/4B3AG4z4G2 B2A2 c2B2 _7/8d2c2 e2c3BA4B4c2 d2c2 B2A8A8A8z8z4|
w:   | 


